X: 19190
T: Isabella Burke
R: waltz
M: 3/4
K: Aminor
|:e2e2ed|e2a2ag|e2gedc|c4GA|
B2c2BA|G2g2ed|c2BGAG|E6:|
|:G2c2BA|G2G2G/A/B|c2e2d2|c4GA|
B2c2BA|G2g2ed|c2BGAG|E6:|

